X: 1213
T: An Dro
R: barndance
M: 4/4
K: Aminor
|:E|AB cA B2 e2|de dc B2 cB|AB cA B2 ee|de dc B3:|
|:c|e2 ed c2 e2|dc BA E3 E|AB cA d2 dc|B2 c2 A3:|

